X: 07079
T: MIKE BEAN'S HORNPIPE
C: Bob McQuillen 21 Feb 89
B: Bob's Note Book 7 #79
%R: hornpipe, reel
Z: 2020 John Chambers <jc:trillian.mit.edu>
M: C
L: 1/8
K: D
FA \
| dfec d2A2 | BdcB A2FA | dcBd AFEG | F2D2 DFAB |
| dfec d2A2 | BdcB AFAd | efgf edBd | c2A2 A2 :|
|: fg \
| a2af d2AF | GABG E2ef | g2gf edBd | c2A2 A2AG |
| FAde d2AF | GBdc d2cB | Adfa gecd | e2d2 d2 :|
%%begintext align
%% Mike came to the Philly
%% Festifal for several  years - He was a young bones
%% player and we used to hook up with Perry Danforth
%% (_THE_ Mr. Bones!) at the top of the hill and play some
%% tunes together. We used to have a real nice time. Anybody
%% know where Mike is these days?
%%endtext

%%sep 1 1 500

%%sep 1 1 500

